X: 36541
T: Setting Sail
R: jig
M: 6/8
K: Dminor
DEF|:FEF FED|A2F DEF|FED E2A|GFE DEF|
FEF FED|A2F DEF|FDF ECE|1 D2D DEF:|2 D2A ABc||
|:d2A B2G|A2F DEF|E2A GFE|F2A ABc|
d2A B2G|A2F DEF|E2A GFE|1 D2A ABc:|2 D3 FED||
|:E2A GFE|F2D FED|E2A GFE|D3 FED|
E2A GFE|F2D FED|E2A GFE|1 D3 FED:|2 D3 DE^F||

